X:12
T:Hanter dro
C:Pennec, Tablatures 2
M:3/4
L:1/16
K:G
G2GA c2B2 A2B2|GFGA c2B2 A3B|\
G2GA c2B2 A2B2|GFGA c2B2 A4||
|:B2BB c2B2 G2B2|AcBd G2FG A4|\
B2BB c2B2 G2B2|AcBd G2AF G4:|
